**kern	**kern	**dynam
*part1	*part1	*part1
*staff2	*staff1	*staff1
*IPiano	*IPiano	*IPiano
*clefG2	*clefG2	*clefG2
*k[]	*k[]	*k[]
*M4/8	*M4/8	*M4/8
=1	=1	=1
!Tempo Marking: Modere extrement egal et leger	!Tempo Marking: Modere extrement egal et leger	!Tempo Marking: Modere extrement egal et leger
!Expression: la m.g. un peu en valeur sur la m.d.	!Expression: la m.g. un peu en valeur sur la m.d.	!Expression: la m.g. un peu en valeur sur la m.d.
(>8c'L 8e	(40gLLL	.
.	40b-	.
.	40g-	.
.	40e-	.
.	40d-JJJ)	.
8B'J 8d	(40fLLL	.
.	40a-	.
.	40f-	.
.	40d-	.
.	40B-JJJ)	.
8c'L 8e	(40gLLL	.
.	40b-	.
.	40g-	.
.	40e-	.
.	40d-JJJ)	.
8B'J) 8d	(40fLLL	.
.	40a-	.
.	40f-	.
.	40d-	.
.	40B-JJJ)	.
=2	=2	=2
(>16c'LL 16e 16g	8r	<
16d' 16f 16a	.	.
16e' 16g 16b	(48bLLL	[>
.	48ddd-	.
.	48dd-JJJ)	.
16d'JJ) 16f 16a	(48aLLL	.
.	48dd-	.
.	48d-JJJ)	.
(>16c'LL 16e 16g	8r	]pp<
16d' 16f 16a	.	.
16e' 16g 16b	(48bLLL	[>
.	48ddd-	.
.	48dd-JJJ)	.
16d'JJ) 16f 16a	(48aLLL	.
.	48dd-	.
.	48d-JJJ)	]
=3	=3	=3
*M3/8	*M3/8	*M3/8
(>8c'L 8e	(40gLLL	]
.	40b-	.
.	40g-	.
.	40e-	.
.	40d-JJJ)	.
8B' 8d	(40fLLL	.
.	40a-	.
.	40f-	.
.	40d-	.
.	40B-JJJ)	.
8A'J) 8c	(40eLLL	.
.	40g-	.
.	40e-	.
.	40c-	.
.	40A-JJJ)	.
=4	=4	=4
*M3/4	*M3/4	*M3/4
*clefF4	*clefF4	*
(>8G'L 8B 8d	(>48dLLL	.
.	48d-	.
.	48B-	.
.	48A-	.
.	48G-	.
.	48E-JJJ)	.
8G'J) 8B 8d	(<48DLLL	.
.	48D	.
.	48GG	.
.	48DD	.
.	48GG	.
.	48DJJJ)	.
(>8G'L 8B 8d	(>48d-LLL	.
.	48d-	.
.	48B-	.
.	48A-	.
.	48G-	.
.	48E-JJJ)	.
8G'J) 8B 8d	(<48DLLL	.
.	48D	.
.	48GG	.
.	48DD	.
.	48GG	.
.	48DJJJ)	.
(>8G'L 8B 8d	(>48DLLL	.
.	48d-	.
.	48B-	.
.	48A-	.
.	48G-	.
.	48E-JJJ)	.
8G'J) 8B 8d	(<48DLLL	.
.	48D	.
.	48GG	.
.	48DD	.
.	48GG	.
.	48DJJJ)	.
=5	=5	=5
*M4/8	*M4/8	*M4/8
4ryy	(16CC'LL 16GG	<
.	16D-' 16A-	.
.	16C' 16G	.
*	*clefG2	*
.	16d-'JJ) 16a-	.
*clefG2	*	*
(<8c'L 8e	(40gLLL	[
.	40b-	.
.	40g-	.
.	40e-	.
.	40d-JJJ)	.
8B'J) 8d	(40fLLL	.
.	40a-	.
.	40f-	.
.	40d-	.
.	40B-JJJ)	.
*clefF4	*clefF4	*
=6	=6	=6
4ryy	(16CC'LL 16GG	<
.	16D-' 16A-	.
.	16C' 16G	.
*	*clefG2	*
.	16d-'JJ) 16a-	.
*clefG2	*	*
(<8c'L 8e	(40gLLL	[
.	40b-	.
.	40g-	.
.	40e-	.
.	40d-JJJ)	.
8B'J) 8d	(40fLLL	.
.	40a-	.
.	40f-	.
.	40d-	.
.	40B-JJJ)	.
=7	=7	=7
(>8BL 8d 8f	(40fLLL	.
.	40a-	.
.	40f-	.
.	40d-	.
.	40B-JJJ	.
8e' 8g 8b	40bLLL	.
.	40cc	.
.	40a-	.
.	40fn	.
.	40dnJJJ	.
8g 8b 8dd	40ddLLL	.
.	40ee-	.
.	40dd-	.
.	40b-	.
.	40g-JJJ	.
8e'J) 8g 8b	40bLLL	.
.	40cc	.
.	40a-	.
.	40f	.
.	40dJJJ)	.
=8	=8	=8
(>8B'L 8d	(40fLLL	.
.	40a-	.
.	40f-	.
.	40d-	.
.	40B-JJJ	.
8e' 8g	40bLLL	.
.	40cc	.
.	40a-	.
.	40fn	.
.	40dnJJJ	.
8g' 8b	40ddLLL	.
.	40ee-	.
.	40dd-	.
.	40b-	.
.	40g-JJJ	.
8g'J) 8b	40ddLLL	.
.	40ee-	.
.	40dd-	.
.	40b-	.
.	40g-JJJ)	.
=9	=9	=9
(>8g'L 8b	(40ddLLL	.
.	40ee-	.
.	40dd-	.
.	40b-	.
.	40g-JJJ	.
8g' 8b	40ddLLL	>
.	40ee-	.
.	40dd-	.
.	40b-	.
.	40g-JJJ	.
8g' 8b	40ddLLL	.
.	40ee-	.
.	40dd-	.
.	40b-	.
.	40g-JJJ	.
8g'J) 8b	40ddLLL	.
.	40ee-	.
.	40dd-	.
.	40b-	.
.	40g-JJJ)	.
=10	=10	=10
*	*^	*
!	!	!	!Dynamic Expression: piu
(>8g'L 8b	(40ddLLL	[2ff#~	]pp
.	40dd#	.	.
.	40cc#	.	.
.	40a#	.	.
.	40f#JJJ	.	.
8g' 8b	40ddLLL	.	.
.	40dd#	.	.
.	40cc#	.	.
.	40a#	.	.
.	40f#JJJ	.	.
8g' 8b	40ddLLL	.	.
.	40dd#	.	.
.	40cc#	.	.
.	40a#	.	.
.	40f#JJJ	.	.
8g'J) 8b	40ddLLL	.	.
.	40dd#	.	.
.	40cc#	.	.
.	40a#	.	.
.	40f#JJJ)	.	.
=11	=11	=11	=11
*	*	*^	*
.	.	.	(<8qd/	.
(>8g'L 8b	(40ddLLL	2ff#~]	2c#~\)	.
.	40dd#	.	.	.
.	40cc#	.	.	.
.	40a#	.	.	.
.	40f#JJJ	.	.	.
8g' 8b	40ddLLL	.	.	.
.	40dd#	.	.	.
.	40cc#	.	.	.
.	40a#	.	.	.
.	40f#JJJ	.	.	.
8g' 8b	40ddLLL	.	.	.
.	40dd#	.	.	.
.	40cc#	.	.	.
.	40a#	.	.	.
.	40f#JJJ	.	.	.
8g'J) 8b	40ddLLL	.	.	.
.	40dd#	.	.	.
.	40cc#	.	.	.
.	40a#	.	.	.
.	40f#JJJ)	.	.	.
=12	=12	=12	=12	=12
.	.	(<8qgg/	.	.
(>8g'L 8b	(40ddLLL	2ff#~)	4rA	.
.	40dd#	.	.	.
.	40cc#	.	.	.
.	40a#	.	.	.
.	40f#JJJ	.	.	.
8g' 8b	40ddLLL	.	.	.
.	40dd#	.	.	.
.	40cc#	.	.	.
.	40a#	.	.	.
.	40f#JJJ	.	.	.
.	.	.	(<8qd/	.
8g' 8b	40ddLLL	.	4c#~\)	.
.	40dd#	.	.	.
.	40cc#	.	.	.
.	40a#	.	.	.
.	40f#JJJ	.	.	.
8g'J) 8b	40ddLLL	.	.	.
.	40dd#	.	.	.
.	40cc#	.	.	.
.	40a#	.	.	.
.	40f#JJJ)	.	.	.
*	*	*v	*v	*
=13	=13	=13	=13
(>8g'L 8b	(40ddLLL	4c#	.
.	40dd#	.	.
.	40cc#	.	.
.	40a#	.	.
.	40f#JJJ	.	.
8g' 8b	40ddLLL	.	.
.	40dd#	.	.
.	40cc#	.	.
.	40a#	.	.
.	40f#JJJ	.	.
8g' 8b	40ddLLL	4A#~	.
.	40dd#	.	.
.	40cc#	.	.
.	40a#	.	.
.	40f#JJJ	.	.
8g'J) 8b	40ddLLL	.	.
.	40dd#	.	.
.	40cc#	.	.
.	40a#	.	.
.	40f#JJJ)	.	.
=14	=14	=14	=14
!Expression: Pedal	!	!	!
(>8g'L 8b	(40ddLLL	[2F#~	.
.	40dd#	.	.
.	40cc#	.	.
.	40a#	.	.
.	40f#JJJ)	.	.
8g' 8b	(40bLLL	.	.
.	40cc#	.	.
.	40a#	.	.
.	40f#	.	.
.	40d#JJJ)	.	.
8g' 8b	(40anLLL	.	.
.	40a#	.	.
.	40f#	.	.
.	40d#	.	.
.	40c#JJJ)	.	.
8g'J) 8b	(40bLLL	.	.
.	40cc#	.	.
.	40a#	.	.
.	40f#	.	.
.	40d#JJJ)	.	.
=15	=15	=15	=15
(>8g'L 8b	(40ddLLL	2F#X]	.
.	40dd#	.	.
.	40cc#	.	.
.	40a#	.	.
.	40f#JJJ)	.	.
8g' 8b	(40bLLL	.	.
.	40cc#	.	.
.	40a#	.	.
.	40f#	.	.
.	40d#JJJ)	.	.
8g' 8b	(40anLLL	.	.
.	40a#	.	.
.	40f#	.	.
.	40d#	.	.
.	40c#JJJ)	.	.
8g'J) 8b	(40bLLL	.	.
.	40cc#	.	.
.	40a#	.	.
.	40f#	.	.
.	40d#JJJ)	.	.
!Expression: Pedal Stop	!	!	!
*	*v	*v	*
=16	=16	=16
!Tempo Marking: Cedez	!Tempo Marking: Cedez	!Tempo Marking: Cedez
!	!	!Dynamic Expression: piu
(>8g'L 8b 8dd	4r	pp
8e' 8g 8b	.	.
8d' 8f 8a	[4c#~ [4cc#	.
8e'J 8g 8b	.	.
=17	=17	=17
8d'L 8f 8a	4c#] 4cc#]	>
8e' 8g 8b	.	.
8d' 8f 8a	4c#Z 4cc#	.
8e'ZJ) 8g 8b	.	.
*clefF4	*	*
=18	=18	=18
*8ba	*8va	*
!Tempo Marking: Mouvt	!Tempo Marking: Mouvt	!Tempo Marking: Mouvt
!Expression: un peu en dehors	!	!
(>16CCC#'LL 16CC#	(>16ccc#'LL 16cccc#	]
16DDD'JJ 16DD	16ddd'JJ 16dddd	.
4DDD~ 4DD	4ddd~ 4dddd	.
8GGG' 8GG	8ggg' 8gggg	.
=19	=19	=19
8DDD#' 8DD#	8ddd#' 8dddd#	<
4GGG#~ 4GG#	4ggg#~ 4gggg#	[>
8EEE') 8EE	8eee') 8eeee	]
=20	=20	=20
*	*^	*
*	*	*^	*
(>8CCC#' 8CC#	(>8ccc#' 8cccc#	4r	4ryy	pp<
*X8ba	*X8va	*	*	*
4.C#~) 4.c#	4.cc#~) 4.ccc#	.	.	[pp
.	.	(>40gLLL	(<8cnX'\L 8e	.
.	.	40b-	.	.
.	.	40g-	.	.
.	.	40e-	.	.
.	.	40d-JJJ)	.	.
.	.	(>40fLLL	8B'\J) 8d-	>
.	.	40a-	.	.
.	.	40f-	.	.
.	.	40d-	.	.
.	.	40B-JJJ)	.	.
=21	=21	=21	=21	=21
(>8CC#' 8C#	(>8cc#' 8ccc#	4r	4ryy	]pp<
4.C#~) 4.c#	4.cc#~) 4.ccc#	.	.	[pp
.	.	8ryy	(<16c'\LL 16e 16g	.
.	.	.	16d'\ 16f 16a	.
.	.	(>48bLLL	16e'\ 16g	>
.	.	48ccc#	.	.
.	.	48cc#JJJ)	.	]
.	.	(>48aLLL	16d'\JJ) 16f	.
.	.	48cc#	.	.
.	.	48c#JJJ)	.	.
*	*v	*v	*v	*
=22	=22	=22
*8ba	*8va	*
(>16CC#'LL 16C#	(>16ccc#'LL 16cccc#	pp
16DD'JJ 16D	16ddd'JJ 16dddd	.
4DD~ 4D	4ddd~ 4dddd	.
8GG' 8G	8ggg' 8gggg	.
=23	=23	=23
8EE' 8E	8eee' 8eeee	<
4AA~ 4A	4aaa~ 4aaaa	[>
8FF') 8F	8fff') 8ffff	]
=24	=24	=24
*M3/4	*M3/4	*
*	*^	*
*	*	*^	*
(>8CC#' 8C#X	(<8ccc#' 8cccc#	4ryy	4ryy	<
*X8ba	*X8va	*	*	*
4C#~) 4c#	4cc#~) 4ccc#	.	.	[pp
.	.	(>40gLLL	(<8c'\L 8e	.
.	.	40b-	.	.
.	.	40g-	.	.
.	.	40e-	.	.
.	.	40d-JJJ)	.	.
8ryy	4ryy	(>40fLLL	8B'\J) 8d-	.
.	.	40a-	.	.
.	.	40f-	.	.
.	.	40d-	.	.
.	.	40B-JJJ)	.	.
4ryy	.	(>40g-LLL	(<8c'\L 8e-	.
.	.	40b-	.	.
.	.	40g-	.	.
.	.	40e-	.	.
.	.	40d-JJJ)	.	.
.	8ryy	(>40f-LLL	8B-'\J) 8d-	.
.	.	40a-	.	.
.	.	40f-	.	.
.	.	40d-	.	.
.	.	40B-JJJ)	.	.
*	*v	*v	*v	*
*clefG2	*	*
=25	=25	=25
*M4/8	*M4/8	*M4/8
(>16c'LL 16e 16g	8r	pp<
16d' 16f 16a	.	.
16e' 16g 16b	(48bLLL	[>
.	48ddd-	.
.	48dd-JJJ)	.
16d'JJ) 16f 16a	(48aLLL	.
.	48dd-	.
.	48d-JJJ)	.
(>16c'LL 16e 16g	8r	]pp<
16d' 16f 16a	.	.
16e' 16g 16b	(48bLLL	[>
.	48ddd-	.
.	48dd-JJJ)	.
16d'JJ) 16f 16a	(48aLLL	.
.	48dd-	.
.	48d-JJJ)	.
=26	=26	=26
*M3/8	*M3/8	*M3/8
(<8c'L 8e	(40gLLL	]pp
.	40b-	.
.	40g-	.
.	40e-	.
.	40d-JJJ)	.
8B' 8d	(40fLLL	.
.	40a-	.
.	40f-	.
.	40d-	.
.	40B-JJJ)	.
8A'J) 8c	(40eLLL	.
.	40g-X	.
.	40e-	.
.	40c-	.
.	40A-JJJ)	.
*clefF4	*clefF4	*
=27	=27	=27
*M4/8	*M4/8	*
(>8G'L 8B	(>48dLLL	.
.	48d-	.
.	48B-	.
.	48A-	.
.	48G-	.
.	48E-JJJ)	.
8G'J) 8B	(>48d-LLL	.
.	48D	.
.	48GG	.
.	48DD	.
.	48GG	.
.	48DJJJ)	.
(>8C'L 8E	(>48G-LLL	<
.	48B-	.
.	48A-	.
.	48G-X	.
.	48E-	.
.	48D-JJJ)	.
8D'J) 8F	(>48A-LLL	.
.	48c	.
.	48B-	.
.	48A-	.
.	48G-	.
.	48E-JJJ)	.
=28	=28	=28
(>8G'L 8B	(>48dLLL	[
.	48d-	.
.	48B-	.
.	48A-	.
.	48G-	.
.	48E-JJJ)	.
8G'J) 8B	(>48d-LLL	.
.	48D	.
.	48GG	.
.	48DD	.
.	48GG	.
.	48DJJJ)	.
(>8C'L 8E	(>48G-LLL	<
.	48B-	.
.	48A-	.
.	48G-	.
.	48E-	.
.	48D-JJJ)	.
8G'J) 8B	(>48d-LLL	.
.	48GG	.
.	48Dn	.
.	48D	.
.	48G-	.
.	48d-JJJ)	.
=29	=29	=29
*^	*	*
(<48FF#LLL	4FF#~	32r	[
48C#	.	.	.
.	.	(>64GLLLL	<
48F#	.	.	.
.	.	64c#	.
48A#	.	64f#	.
.	.	64g	.
48c#	.	.	.
*	*	*clefG2	*
.	.	64g	.
*clefG2	*	*	*
48f#	.	.	.
.	.	64cc#	.
48a#	.	64ff#	.
.	.	64gg	.
48cc#	.	.	.
.	.	64gg	.
48ff#	.	.	.
.	.	64ccc#	.
48aa#	.	64fff#	.
.	.	64ggg	.
48ccc#	.	.	.
*	*	*8va	*
.	.	64ggg	.
48fff#JJJ	.	.	.
.	.	64cccc#	.
16aaa#)	4ryy	64ffff#JJJJ	.
.	.	16gggg)	[
16r	.	.	.
*	*	*X8va	*
.	.	16r	.
(<32qqd-\LLL 32qqg- 32qqb-	.	.	f
32qqcn/JJJ 32qqe 32qqg	.	.	.
8e') 8gn 8ccn	.	.	.
.	.	16r	.
.	.	64ryy	.
.	.	32ryy	.
=30	=30	=30	=30
*clefF4	*	*clefF4	*
(<48FF#LLL	4FF#~	32r	p
48C#	.	.	.
.	.	(>64GLLLL	<
48F#	.	.	.
.	.	64c#	.
48A#	.	64f#	.
.	.	64g	.
48c#	.	.	.
*	*	*clefG2	*
.	.	64g	.
*clefG2	*	*	*
48f#	.	.	.
.	.	64cc#	.
48a#	.	64ff#	.
.	.	64gg	.
48cc#	.	.	.
.	.	64gg	.
48ff#	.	.	.
.	.	64ccc#	.
48aa#	.	64fff#	.
.	.	64ggg	.
48ccc#	.	.	.
*	*	*8va	*
.	.	64ggg	.
48fff#JJJ	.	.	.
.	.	64cccc#	.
16aaa#)	4ryy	64ffff#JJJJ	.
.	.	16gggg)	[
16r	.	.	.
*	*	*X8va	*
.	.	16r	.
(<32qqe-\LLL 32qqa- 32qqccn	.	.	f<
32qqd/JJJ 32qqf# 32qqan	.	.	.
[8f#') [8an [8dd	.	.	[
.	.	16r	.
.	.	64ryy	.
.	.	32ryy	.
*v	*v	*	*
=31	=31	=31
(<4f#X] 4a] 4dd]	2r	.
4f#~) 4a 4dd	.	>
=32	=32	=32
16f# 16a	((68ddnXLLL	]pp
.	68d#	.
.	68g#	.
.	68dd#)	.
.	68dd#	.
16ryy	.	.
.	68gg#	.
.	68ddd#	.
*	*8va	*
.	68ddd#	.
.	68ggg#	.
8ryy	.	.
.	68dddd#	.
.	68ggg#	.
.	68ddd#	.
*	*X8va	*
.	68ddd#	.
.	68gg#	.
.	68dd#	.
.	68dd#	.
.	68g#JJJ)	.
16f# 16a	((68ddLLL	.
.	68d#	.
.	68g#	.
.	68dd#)	.
.	68dd#	.
16ryy	.	.
.	68gg#	.
.	68ddd#	.
*	*8va	*
.	68ddd#	.
.	68ggg#	.
8ryy	.	.
.	68dddd#	.
.	68ggg#	.
.	68ddd#	.
*	*X8va	*
.	68ddd#	.
.	68gg#	.
.	68dd#	.
.	68dd#	.
.	68g#JJJ)	.
=33	=33	=33
*^	*	*
8dd	16f#X~ 16a	(68ddnXLLL	<
.	.	68d#	.
.	.	68g#	.
.	.	68dd#	.
.	.	68dd#	.
.	16ryy	.	.
.	.	68gg#	.
.	.	68ddd#	.
*	*	*8va	*
.	.	68ddd#	.
.	.	68ggg#	.
8ee#	8ryy	.	[
.	.	68dddd#	.
.	.	68ggg#	.
.	.	68ddd#	.
*	*	*X8va	*
.	.	68ddd#	.
.	.	68gg#	.
.	.	68dd#	.
.	.	68dd#	.
.	.	68g#JJJ)	.
8dd	16f#~ 16a	(68ddLLL	>
.	.	68d#	.
.	.	68g#	.
.	.	68dd#	.
.	.	68dd#	.
.	16ryy	.	.
.	.	68gg#	.
.	.	68ddd#	.
*	*	*8va	*
.	.	68ddd#	.
.	.	68ggg#	.
8b'	8ryy	.	]
.	.	68dddd#	.
.	.	68ggg#	.
.	.	68ddd#	.
*	*	*X8va	*
.	.	68ddd#	.
.	.	68gg#	.
.	.	68dd#	.
.	.	68dd#	.
.	.	68g#JJJ)	.
=34	=34	=34	=34
(>16b	16f#~ 16a	(68bLLL	.
.	.	68d#	.
.	.	68g#	.
.	.	68dd#	.
.	.	68dd#	.
8.ddnX)	16ryy	.	.
.	.	68gg#	.
.	.	68ddd#	.
*	*	*8va	*
.	.	68ddd#	.
.	.	68ggg#	.
.	8ryy	.	.
.	.	68dddd#	.
.	.	68ggg#	.
.	.	68ddd#	.
*	*	*X8va	*
.	.	68ddd#	.
.	.	68gg#	.
.	.	68dd#	.
.	.	68dd#	.
.	.	68g#JJJ)	.
8b	16f#~ 16a	(68bLLL	.
.	.	68d#	.
.	.	68g#	.
.	.	68dd#	.
.	.	68dd#	.
.	16ryy	.	.
.	.	68gg#	.
.	.	68ddd#	.
*	*	*8va	*
.	.	68ddd#	.
.	.	68ggg#	.
8cc'	8ryy	.	.
.	.	68dddd#	.
.	.	68ggg#	.
.	.	68ddd#	.
*	*	*X8va	*
.	.	68ddd#	.
.	.	68gg#	.
.	.	68dd#	.
.	.	68dd#	.
.	.	68g#JJJ)	.
=35	=35	=35	=35
8ddnX	16f#~ 16a	(68ddnXLLL	.
.	.	68d#	.
.	.	68g#	.
.	.	68dd#	.
.	.	68dd#	.
.	16ryy	.	.
.	.	68gg#X	.
.	.	68ddd#X	.
*	*	*8va	*
.	.	68ddd#	.
.	.	68ggg#	.
8ryy	8ryy	.	.
.	.	68dddd#	.
.	.	68ggg#	.
.	.	68ddd#	.
*	*	*X8va	*
.	.	68ddd#	.
.	.	68gg#	.
.	.	68dd#	.
.	.	68dd#	.
.	.	68g#JJJ)	.
8ccnX	16e~ 16g	(68ccnXLLL	.
.	.	68d#	.
.	.	68g#	.
.	.	68dd#	.
.	.	68dd#	.
.	16ryy	.	.
.	.	68gg#	.
.	.	68ddd#	.
*	*	*8va	*
.	.	68ddd#	.
.	.	68ggg#	.
8ryy	8ryy	.	.
.	.	68dddd#	.
.	.	68ggg#	.
.	.	68ddd#	.
*	*	*X8va	*
.	.	68ddd#	.
.	.	68gg#	.
.	.	68dd#	.
.	.	68dd#	.
.	.	68g#JJJ)	.
=36	=36	=36	=36
!	!	!	!Dynamic Expression: piu
8g	16B~ 16d	(68gLLL	pp
.	.	68A-	.
.	.	68d-	.
.	.	68a-	.
.	.	68a-	.
.	16ryy	.	.
.	.	68dd-	.
.	.	68aa-	.
.	.	68aa-	.
.	.	68ddd-	.
8b-'	8ryy	.	.
.	.	68aaa-	.
.	.	68ddd-	.
.	.	68aa-	.
.	.	68aa-	.
.	.	68dd-	.
.	.	68a-	.
.	.	68a-	.
.	.	68d-JJJ)	.
8g'	4ryy	(68gLLL	.
.	.	68A-	.
.	.	68d-	.
.	.	68a-	.
.	.	68a-	.
.	.	68dd-	.
.	.	68aa-	.
.	.	68aa-	.
.	.	68ddd-	.
8enX'	.	.	.
.	.	68aaa-	.
.	.	68ddd-	.
.	.	68aa-	.
.	.	68aa-	.
.	.	68dd-	.
.	.	68a-	.
.	.	68a-	.
.	.	68d-JJJ)	.
=37	=37	=37	=37
(>16enX	2B 2d	(68enXLLL	.
.	.	68A-	.
.	.	68d-	.
.	.	68a-	.
.	.	68a-	.
8.g)	.	.	.
.	.	68dd-	.
.	.	68aa-	.
.	.	68aa-	.
.	.	68ddd-	.
.	.	68aaa-	.
.	.	68ddd-	.
.	.	68aa-	.
.	.	68aa-	.
.	.	68dd-	.
.	.	68a-	.
.	.	68a-	.
.	.	68d-JJJ)	.
8e'	.	(68enLLL	.
.	.	68A-	.
.	.	68d-	.
.	.	68a-	.
.	.	68a-	.
.	.	68dd-	.
.	.	68aa-	.
.	.	68aa-	.
.	.	68ddd-	.
8f'	.	.	.
.	.	68aaa-	.
.	.	68ddd-	.
.	.	68aa-	.
.	.	68aa-	.
.	.	68dd-	.
.	.	68a-	.
.	.	68a-	.
.	.	68d-JJJ)	.
*v	*v	*	*
*clefF4	*	*
=38	=38	=38
*8ba	*	*
16CCC#'LL 16CC#	[2G# 2A- [2c# 2d- [2g# 2a-	pp
16DDD'JJ 16DD	.	.
4DDD~ 4DD	.	.
8GGG' 8GG	.	.
=39	=39	=39
8DDD#' 8DD#	2G#X] 2c#X] 2g#X]	<
4GGG#~ 4GG#	.	[>
8EEE' 8EE	.	]
*	*clefF4	*
=40	=40	=40
2CCC#X~ 2CC#	4r	.
.	(>96C#LLL	pp<
.	96G#	.
.	96c#	.
.	96Gn	.
.	96d	.
.	96g	.
*	*clefG2	*
.	96G#	.
.	96c#	.
.	96g#	.
.	96d	.
.	96g#	.
.	96dd	[>
.	96c#	.
.	96g#	.
.	96cc#	.
.	96g#	.
.	96dd	.
.	96gg	.
.	96G#	.
.	96c#	.
.	96g#	.
.	96d	.
.	96g#	.
.	96ddJJJ)	.
*X8ba	*	*
=41	=41	=41
32r	[2G#~ [2c# [2g#	]
!Expression: un peu marque	!	!
32CC#'LLL	.	p<
32DD'	.	.
32GG'J	.	.
16DD#X'	.	.
[16GG#JJ	.	.
8GG#L]	.	[>
[8EEJ	.	]
!Expression: Pedal	!	!
=42	=42	=42
!Tempo Marking: Cedez	!Tempo Marking: Cedez	!Tempo Marking: Cedez
*^	*	*
2EE]	4rA	2G#XZ] 2c#X] 2g#X]	.
*	*8ba	*	*
.	(>4EEEZ	.	pp>
!Expression: Pedal Stop	!	!	!
*	*X8ba	*	*
*v	*v	*	*
=43	=43	=43
!Tempo Marking: Mouvt en retenant et en s'effacant	!Tempo Marking: Mouvt en retenant et en s'effacant	!Tempo Marking: Mouvt en retenant et en s'effacant
*	*^	*
*8ba	*	*	*
2CCC)	4r	4ryy	]
.	(>40gLLL	(<8c'L 8e	pp
.	40b-	.	.
.	40g-	.	.
.	40e-	.	.
.	40d-JJJ)	.	.
.	(>40fLLL	8B'J) 8d-	.
.	40a-	.	.
.	40f-	.	.
.	40d-	.	.
.	40B-JJJ)	.	.
=44	=44	=44	=44
2CCC	4r	4ryy	.
.	8ryy	16c'LL 16e 16g	.
.	.	16d' 16f 16a	.
.	(>48bLLL	16e 16g 16b	.
.	48ddd-	.	.
.	48dd-JJJ)	.	.
.	(>48aLLL	16d'JJ 16f	.
.	48dd-	.	.
.	48d-JJJ)	.	.
=45	=45	=45	=45
2CCC	4r	4ryy	.
.	(>40gLLL	(<8c'L 8e	.
.	40b-	.	.
.	40g-	.	.
.	40e-	.	.
.	40d-JJJ)	.	.
.	(>40fLLL	8B'J) 8d-	.
.	40a-	.	.
.	40f-	.	.
.	40d-	.	.
.	40B-JJJ)	.	.
=46	=46	=46	=46
2CCC	4r	4ryy	.
.	(>40gLLL	(<8c'L 8e	.
.	40b-	.	.
.	40g-	.	.
.	40e-	.	.
.	40d-JJJ)	.	.
.	(>40fLLL	8B'J) 8d-	.
.	40a-	.	.
.	40f-	.	.
.	40d-	.	.
.	40B-XJJJ)	.	.
*	*v	*v	*
*X8ba	*	*
=47	=47	=47
*	*^	*
*	*	*^	*
2r	(>48cLLL	8ryy	[2c\	.
.	48d-	.	.	.
.	[48g	.	.	.
.	48dd-	.	.	.
.	[48gg	.	.	.
.	48ddd-JJJ	.	.	.
.	4ddn 4gg] 4dddn	4dn 4g]	.	<
.	8gg 8ggg	8g	.	[
=48	=48	=48	=48	=48
2r	8ee-) 8eee-	8e-	(<4c\]	.
.	(<32qqg/LLL	.	.	.
.	[32qqa-/_	.	.	.
.	[32qqgg/	.	.	.
.	[32qqaa-/	.	.	.
.	32qqggg/JJJ	.	.	.
.	4.aa-]) 4.aaa-	4.g 4.a- 4.gg	.	.
.	.	.	8c\L 8en 8g	.
.	.	.	(<8B\J 8d 8f	.
*	*v	*v	*v	*
*clefG2	*	*
=49	=49	=49
(8BL) 8d 8f	2r	.
16cL 16e 16g	.	.
16dJJ 16f 16a	.	.
16eKL 16g 16b	.	.
8.dJ) 8.f 8.a	.	.
=50	=50	=50
*^	*	*
8r	4.ryy	4r	.
(8c' 8e 8g	.	.	.
4B') 4d 4f	.	8r	.
!	!	!Tempo Marking: Presque plus rien	!
.	([<32qqg/LLL	.	.
.	[<32qqa-/	.	.
.	32qqgg/)	.	.
.	[32qqaa-/	.	.
.	32qqggg/JJJ	.	.
.	[8g [8a-X [8gg	8aa-_) [8aaa-	.
=51	=51	=51	=51
4rD	2g] 2a-] 2gg]	2aa-] 2aaa-]	.
4c' 4e 4g	.	.	.
*v	*v	*	*
=52	=52	=52
4B' 4d 4f	2r	.
4r	.	.
==	==	==
*-	*-	*-
!!!system-decoration: {(s1,s2)}
!!!RDF**kern: > = above
!!!RDF**kern: < = below
!!!RDF**kern: Z = caesura
